.local/share/icons/Gruvbox-Plus-Dark/panel/22/keybase-tray.svg

<svg xmlns="http://www.w3.org/2000/svg" width="22" height="22" version="1.1">
 <defs>
  <style id="current-color-scheme" type="text/css">
   .ColorScheme-Text { color:#ebdbb2; } .ColorScheme-Highlight { color:#458588; }
  </style>
 </defs>
 <path style="fill:currentColor" class="ColorScheme-Text" d="M 9.3378906 3 C 9.2917506 3 8.9898905 3.5097587 8.703125 4.0722656 C 8.2833253 4.8957293 8.0823547 5.5282129 8.0136719 6.2597656 C 7.9967029 6.44054 8.0003427 6.6184414 8.0117188 6.7929688 C 8.0046387 6.8715927 8.00072 6.9503658 8 7.0292969 C 8 7.350909 8.06468 7.6552539 8.1601562 7.9453125 C 6.8950986 8.5095454 5.823752 9.4303825 5.0878906 10.589844 C 4.9068303 10.826602 4.7468155 11.073389 4.6308594 11.337891 C 4.4486475 11.753525 4.313504 12.183713 4.2109375 12.648438 C 4.1426895 12.924193 4.0852482 13.20267 4.0507812 13.490234 C 4.0477112 13.515834 4.0557914 13.521208 4.0683594 13.517578 C 4.0552044 13.628341 4.0375767 13.733607 4.0273438 13.849609 C 3.9945383 14.221494 3.9905989 14.374998 4.015625 14.375 L 8 10 L 6.96875 13.455078 C 6.97482 13.461178 7.1062877 13.407508 7.2617188 13.335938 C 8.2166789 12.896237 9.4068475 12.129473 10.458984 12.003906 C 10.821824 11.960606 12.080719 11.956444 12.458984 11.996094 C 13.225236 12.076384 13.924789 12.66763 14.785156 12.904297 C 15.16638 13.009168 15.353785 13.034767 15.666016 13.023438 C 15.978476 13.012118 16.161765 12.970368 16.392578 12.859375 C 16.968534 12.582416 17.271543 11.981039 17.1875 11.332031 C 17.1796 11.270861 17.162791 11.21171 17.150391 11.152344 C 17.175081 11.091224 17.152088 10.988693 17.054688 10.818359 C 16.958797 10.563556 16.816689 10.307994 16.603516 10.019531 C 15.812925 9.1507616 14.885394 8.4287802 13.837891 7.9492188 C 13.934232 7.6579794 14 7.3524242 14 7.0292969 C 13.999974 6.9537899 13.997887 6.8780222 13.992188 6.8027344 C 13.994788 6.7274754 14.001947 6.6521806 13.998047 6.578125 C 13.944926 5.5609826 13.350328 4.8631388 12.453125 4.4042969 C 11.978118 4.1613714 11.251468 4.0478117 10.777344 4.046875 C 10.185851 4.045709 9.7363509 3.5371451 9.4472656 3.1210938 C 9.4009907 3.0544933 9.3516794 2.9999994 9.3378906 3 z M 17.832031 12.828125 C 17.596352 13.220568 17.257983 13.552121 16.826172 13.759766 C 16.497288 13.917917 16.09035 14.009408 15.703125 14.023438 C 15.321853 14.037268 14.941439 13.985198 14.519531 13.869141 C 13.382163 13.556277 12.67841 13.024073 12.355469 12.990234 C 12.213148 12.975324 10.678186 12.984094 10.578125 12.996094 C 9.9135234 13.075414 8.7491037 13.751739 7.6796875 14.244141 C 7.5909405 14.285001 7.5096359 14.321391 7.4355469 14.351562 C 7.3985019 14.366642 7.3668919 14.379364 7.3164062 14.396484 C 7.2911633 14.405084 7.2657062 14.414497 7.1992188 14.429688 C 7.1659748 14.437288 7.1266108 14.447525 7.0273438 14.453125 C 6.9777107 14.455925 6.7992596 14.441486 6.7988281 14.441406 C 6.7986124 14.441366 6.5782807 14.37507 6.578125 14.375 C 6.5779693 14.374934 6.2598605 14.160252 6.2597656 14.160156 A 1.0001 1.0001 0 0 1 5.9960938 13.6875 L 4.7558594 15.048828 A 1.0001 1.0001 0 0 1 4.0898438 15.373047 A 6.9999312 6.9999312 0 0 0 5.7929688 19 L 16.208984 19 A 6.9999312 6.9999312 0 0 0 18 14.333984 A 6.9999312 6.9999312 0 0 0 17.832031 12.828125 z M 8 15 A 1 1 0 0 1 9 16 A 1 1 0 0 1 8 17 A 1 1 0 0 1 7 16 A 1 1 0 0 1 8 15 z M 14 15 A 1 1 0 0 1 15 16 A 1 1 0 0 1 14 17 A 1 1 0 0 1 13 16 A 1 1 0 0 1 14 15 z"/>
</svg>

<svg width="22" height="22" version="1.1" xmlns="http://www.w3.org/2000/svg">
  <defs>
    <style id="current-color-scheme" type="text/css">.ColorScheme-Text { color:#ebdbb2; } .ColorScheme-Highlight { color:#458588; } .ColorScheme-NeutralText { color:#fe8019; } .ColorScheme-PositiveText { color:#689d6a; } .ColorScheme-NegativeText { color:#fb4934; }</style>
  </defs>
  <path class="ColorScheme-Text" d="m8.703 4.072c-0.4138 0.8118-1.032 2.39-0.543 3.874-4.318 1.814-4.172 6.431-4.156 6.431l3.996-4.375-1.031 3.455s2.165-1.209 3.49-1.451c0.7684-0.1401 1.235-0.1287 2-0.0078 0.7884 0.1245 1.483 0.6177 2.326 0.9082 1.045 0.2897 2.602-0.03155 2.402-1.572-0.1279-1.293-1.941-2.738-3.35-3.382 0.1937-0.5855 0.6415-2.509-1.385-3.545-0.475-0.2429-1.202-0.3565-1.676-0.3574-0.8649-0.00171-1.347-1.047-1.416-1.048-0.06868-7.2e-4 -0.3705 0.5091-0.6573 1.071zm9.129 8.756c-0.5623 0.9361-1.699 1.485-3.313 1.041-1.137-0.3129-1.591-0.7711-2.164-0.8789-0.6479-0.1221-0.9201-0.1502-1.777 0.0059-0.6586 0.1195-1.829 0.7556-2.898 1.248-1.36 0.626-1.656-0.4393-1.684-0.5567l-1.24 1.361c-0.1723 0.1893-0.4107 0.3054-0.666 0.3242 0.2021 1.349 0.794 2.61 1.703 3.627h10.42c1.151-1.282 1.789-2.943 1.791-4.666-0.002228-0.8684-0.1724-1.506-0.1724-1.506zm-9.832 2.172c0.5523 0 1 0.4477 1 1s-0.4477 1-1 1-1-0.4477-1-1 0.4477-1 1-1zm6 0c0.5523 0 1 0.4477 1 1s-0.4477 1-1 1-1-0.4477-1-1 0.4477-1 1-1z" fill="currentColor"/>
</svg>
